build/img/sprite/icon-bar.svg

<svg width="37" height="35" viewBox="0 0 37 35" fill="none" xmlns="http://www.w3.org/2000/svg">
<path d="M9.76601 11.067C7.41279 12.6455 4.71566 12.2819 2.93346 10.7483C1.09985 9.1717 0.496127 6.6054 1.44377 4.3877C2.39982 2.14943 4.5437 0.944784 6.70066 1.00646C9.42957 1.08403 11.8062 3.16342 12.094 6.15308C12.2117 6.15308 12.3351 6.15308 12.4575 6.15308C16.2939 6.15308 20.1303 6.14934 23.9666 6.16055C24.2433 6.16055 24.3722 6.07457 24.4881 5.82785C25.0554 4.61479 25.6572 3.41856 26.2236 2.2055C26.6067 1.38403 27.2264 0.997119 28.1301 1.00086C30.5553 1.01114 32.9814 1.00366 35.4066 1.00553C35.5112 1.00553 35.6449 0.981232 35.7131 1.0345C35.8364 1.13076 35.9991 1.27562 36 1.40178C36.0009 1.52982 35.8486 1.69056 35.7224 1.77841C35.6327 1.84103 35.4748 1.81112 35.3477 1.81112C32.9337 1.81205 30.5197 1.82046 28.1067 1.80551C27.546 1.80177 27.1908 2.01953 26.9553 2.52699C26.4451 3.6251 25.9058 4.71012 25.3797 5.80075C25.3311 5.90262 25.2909 6.00822 25.2283 6.15401H25.6385C28.8338 6.15401 32.0291 6.15401 35.2234 6.15401C35.3168 6.15401 35.4178 6.13065 35.5019 6.15868C35.6673 6.21382 35.9149 6.26242 35.9598 6.37924C36.0149 6.52129 35.9514 6.77362 35.8458 6.90446C35.0495 7.89416 34.2299 8.8661 33.4178 9.84365C29.9001 14.0753 26.3806 18.3061 22.8704 22.5443C22.7498 22.6891 22.6648 22.9116 22.6629 23.0994C22.648 25.0115 22.6526 26.9246 22.6545 28.8376C22.6545 29.6067 22.9115 29.9703 23.6349 30.2161C25.2339 30.7572 26.8357 31.289 28.4319 31.8357C29.1815 32.0917 29.6151 32.6385 29.7646 33.4076C29.8674 33.9356 29.7039 34.1291 29.174 34.1291C23.7863 34.13 18.3995 34.13 13.0117 34.1291C12.4762 34.1291 12.337 33.9739 12.4183 33.4487C12.5454 32.6216 13.0229 32.0787 13.8089 31.8114C15.3743 31.2805 16.9415 30.7581 18.5088 30.2329C19.2667 29.9787 19.5135 29.6423 19.5144 28.8423C19.5163 26.918 19.5191 24.9938 19.5069 23.0695C19.506 22.9004 19.4378 22.6985 19.3312 22.5695C16.2163 18.8061 13.0921 15.051 9.96881 11.2941C9.90993 11.2231 9.84545 11.1567 9.76601 11.0698V11.067ZM10.2352 10.3511C10.4333 10.595 10.5744 10.7735 10.7193 10.9483C13.7734 14.623 16.8303 18.2958 19.8789 21.9751C20.0443 22.1742 20.2088 22.2649 20.4695 22.2518C20.8882 22.2293 21.3087 22.2322 21.7274 22.2518C21.9723 22.263 22.1321 22.1826 22.2891 21.9929C24.8834 18.8603 27.4862 15.7342 30.0852 12.6062C30.3646 12.2698 30.6412 11.9296 30.9197 11.5922C30.7291 11.5819 30.5814 11.638 30.431 11.6847C26.9965 12.766 23.5648 12.6828 20.1602 11.5801C17.9957 10.8791 15.7958 10.4193 13.5211 10.3567C12.4547 10.3277 11.3865 10.352 10.2333 10.352L10.2352 10.3511ZM23.9162 6.95867H7.40812C7.88007 7.52875 8.3109 8.05677 8.75014 8.57919C9.03425 8.91656 9.26976 9.37824 9.63517 9.53898C10.0025 9.70066 10.5043 9.56515 10.9464 9.54833C13.2379 9.46141 15.5192 9.56141 17.7574 10.0922C19.035 10.396 20.2901 10.7969 21.5517 11.166C21.7863 11.2343 21.9031 11.1866 22.0097 10.9604C22.6022 9.70814 23.2106 8.46237 23.8124 7.21473C23.8461 7.14371 23.8713 7.06894 23.9152 6.95867H23.9162ZM34.7505 6.95867C34.6608 6.94932 34.6187 6.94184 34.5767 6.94184C31.4057 6.94184 28.2347 6.94465 25.0638 6.93437C24.8311 6.93437 24.7675 7.06053 24.69 7.22128C24.075 8.50162 23.4573 9.7801 22.8405 11.0595C22.7919 11.1614 22.7452 11.2642 22.6769 11.41C23.1975 11.4707 23.6685 11.5436 24.1433 11.5782C26.2058 11.7277 28.2422 11.6081 30.2151 10.9193C31.401 10.5053 32.458 9.91374 33.2141 8.85675C33.6197 8.28948 34.101 7.77547 34.5468 7.23716C34.6103 7.16053 34.6645 7.07642 34.7505 6.95867ZM28.9039 33.2983C28.7338 32.8805 28.4422 32.6684 28.0628 32.5413C26.4955 32.016 24.9302 31.4871 23.3638 30.9581C22.3368 30.6114 21.8685 29.9581 21.8676 28.8647C21.8657 27.0573 21.8676 25.2498 21.8676 23.4424C21.8676 23.3181 21.8676 23.1938 21.8676 23.0592H20.3246V23.4686C20.3246 25.2414 20.3246 27.0133 20.3246 28.7862C20.3246 29.9684 19.8508 30.6226 18.7294 30.9974C17.1845 31.5132 15.6397 32.031 14.0958 32.5487C13.7192 32.6749 13.4173 32.8833 13.2893 33.2983H28.9048H28.9039ZM2.85963 9.51375C3.73063 8.64367 4.58949 7.78575 5.40443 6.97268H1.84376C1.88395 7.9035 2.29702 8.90255 2.85963 9.51375ZM2.90261 3.52136C2.26898 4.26807 1.91198 5.13254 1.826 6.1241H5.50069C4.63155 5.2531 3.77736 4.39704 2.90261 3.52136ZM10.2109 3.57089C9.35013 4.42882 8.49034 5.28674 7.6483 6.12691H11.2342C11.2492 5.30169 10.7473 4.09705 10.2109 3.57089ZM6.12123 7.6437C5.26798 8.49508 4.41006 9.35113 3.55213 10.2072C4.15679 10.781 5.29041 11.252 6.12123 11.2502V7.64463V7.6437ZM3.59232 2.85315C4.46426 3.72416 5.31751 4.57741 6.11282 5.37179V1.83448C5.1521 1.90551 4.15305 2.32513 3.59232 2.85315ZM6.96607 5.43066C7.82306 4.58769 8.68286 3.74098 9.55387 2.88306C8.81183 2.27746 7.95857 1.91392 6.96607 1.82981V5.43066ZM6.9614 11.2707C7.81091 11.1819 8.55295 10.9221 9.25294 10.4324C8.49314 9.51935 7.75578 8.63246 6.9614 7.67547V11.2698V11.2707Z" fill="#9D15A0" stroke="#9D15A0" stroke-width="0.4"/>
</svg>

<svg width="37" height="35" fill="none" xmlns="http://www.w3.org/2000/svg"><path d="M9.766 11.067c-2.353 1.579-5.05 1.215-6.833-.319a5.52 5.52 0 0 1-1.49-6.36 5.52 5.52 0 0 1 5.258-3.382c2.729.078 5.105 2.157 5.393 5.147h.364c3.836 0 7.672-.004 11.509.008.276 0 .405-.086.521-.333.567-1.213 1.17-2.41 1.736-3.623.383-.821 1.002-1.208 1.906-1.204 2.425.01 4.851.003 7.277.005.104 0 .238-.025.306.028.123.097.286.242.287.368 0 .128-.151.289-.278.376-.09.063-.247.033-.374.033-2.414.001-4.828.01-7.241-.005-.561-.004-.916.214-1.152.721-.51 1.098-1.05 2.183-1.575 3.274-.049.102-.09.207-.152.353H35.223c.094 0 .195-.023.279.005.165.055.413.103.458.22.055.142-.009.395-.114.525-.796.99-1.616 1.962-2.428 2.94-3.518 4.231-7.037 8.462-10.548 12.7a.951.951 0 0 0-.207.555c-.015 1.913-.01 3.826-.009 5.739 0 .769.258 1.132.98 1.378 1.6.541 3.202 1.073 4.798 1.62.75.256 1.183.803 1.333 1.572.102.528-.061.721-.591.721H13.012c-.536 0-.675-.155-.594-.68.127-.827.605-1.37 1.39-1.638 1.566-.53 3.134-1.053 4.7-1.578.759-.254 1.006-.59 1.006-1.39.002-1.925.005-3.85-.007-5.773a.85.85 0 0 0-.176-.5c-3.115-3.764-6.239-7.519-9.362-11.276-.06-.07-.124-.137-.203-.224v-.003Zm.47-.716c.197.244.338.422.483.597 3.054 3.675 6.111 7.348 9.16 11.027.165.2.33.29.59.277.42-.023.84-.02 1.258 0 .245.011.405-.07.562-.26 2.594-3.132 5.197-6.258 7.796-9.386.28-.336.556-.676.835-1.014-.19-.01-.339.046-.489.093-3.434 1.081-6.866.998-10.27-.105-2.165-.7-4.365-1.16-6.64-1.223-1.066-.03-2.135-.005-3.288-.005h.002Zm13.68-3.392H7.408c.472.57.903 1.098 1.342 1.62.284.338.52.8.885.96.367.162.87.026 1.311.01 2.292-.088 4.573.012 6.811.543 1.278.304 2.533.705 3.795 1.074.234.068.351.02.458-.206.592-1.252 1.2-2.498 1.802-3.745.034-.071.06-.146.103-.256h.001Zm10.835 0c-.09-.01-.132-.017-.174-.017-3.171 0-6.342.003-9.513-.008-.233 0-.297.127-.374.287-.615 1.28-1.233 2.56-1.85 3.838l-.163.351c.52.06.992.134 1.466.168 2.063.15 4.1.03 6.072-.659 1.186-.414 2.243-1.005 3-2.062.405-.568.886-1.082 1.332-1.62.063-.076.117-.16.204-.278Zm-5.847 26.34c-.17-.419-.462-.63-.841-.758-1.567-.525-3.133-1.054-4.7-1.583-1.026-.347-1.494-1-1.495-2.093-.002-1.808 0-3.615 0-5.423v-.383h-1.543v5.727c0 1.182-.474 1.837-1.596 2.211-1.544.516-3.09 1.034-4.633 1.552-.377.126-.679.334-.807.75h15.616-.001ZM2.86 9.513l2.544-2.541h-3.56c.04.93.453 1.93 1.016 2.54Zm.043-5.993a4.522 4.522 0 0 0-1.077 2.603h3.675c-.87-.87-1.724-1.727-2.598-2.603Zm7.308.05L7.648 6.127h3.586c.015-.825-.487-2.03-1.023-2.556ZM6.12 7.644l-2.569 2.563c.605.574 1.738 1.045 2.57 1.043V7.644Zm-2.529-4.79c.872.87 1.726 1.723 2.52 2.518V1.834c-.96.072-1.959.491-2.52 1.02ZM6.966 5.43l2.588-2.548A4.614 4.614 0 0 0 6.966 1.83v3.6Zm-.005 5.84c.85-.09 1.592-.349 2.292-.839L6.96 7.675v3.595Z" fill="#9D15A0" stroke="#9D15A0" stroke-width=".4"/></svg>
